X:1
T: Drousy Maggie
T: Pegg in the Settle
R:Reel
Q: 232
K:D
M:4/4
L:1/8
|:Bd cA BE E2|BE E2 BA FA|Bd eC BE ((3FED) |AB AG FE FA|
Bd cA BE E2|BE E2 BA FA|Bd eC BE ((3FED)|AB AG FE FA|
BA Bc d2 ed|BA Bc dA FA|BA Bc d2 de|fa ec dA FA|
BA Bc d2 ed|BA Bc dA FA|BA Bc d2 de|fa ec dA FA:|
